X:1
T:Emmanuelle
C:1974 - Pierre Bachelet
Z:www.realbook.site
L:1/8
M:4/4
I:linebreak $
K:D
V:1 treble nm=" " snm=" "
V:1
|:"Bm" F>E D>F E>D F>E |[M:2/4] D>F E>D |[M:4/4]"Em" G6 z2 |1$"F#7" C>C C>C F2 C2 |"Bm" D6 z2 :|2 %5
"F#7" C>C C>C F2 ^A,2 |"Bm" B,6 z2 ||$"Bm" z4 F>E D2 |:"Em7" G6 z2 |"A7" z4 c>d e2 |"D" F6 z2 | %11
"Bm" z4 D>C B,2 |$"Em" E6 z2 |"C#7" z4 C>D C2 |"F#7" F6 z2 |"F#7" z4 F>E F2 :| %16

